X: 30781
T: COTILLION No. 1. FANNY JONES' SETT tune 1
%R: jig
B: Elias Howe "The Musician's Companion" Part 3 1844 p.78 #1
S: http://imslp.org/wiki/The_Musician's_Companion_(Howe,_Elias)
Z: 2015 John Chambers <jc:trillian.mit.edu>
M: 6/8
L: 1/8
K: Eb
% - - - - - - - - - - - - - - - - - - - - - - - - - - - - -
B |\
eBg eBG | E3 E2F/E/ | E2F/E/ E2F/E/ | B2A F2B |\
eBg eBG | E3 E2c/B/ | B2c/B/ BAF | E3 z2 H|]
e |\
fdB B2f | gee e2g | a2f g2e | fff f2e |\
fdB B2f | gee e2g | b2g a2f | e3 "^D.C."z2 |]
B |\
ef_g Bcd | ef_g Bcd | e2e f2f | a2_g f2B |\
ef_g Bcd | ef_g Bcd | e_gf agf | e3 "^D.C."z2 |]
% - - - - - - - - - - Dance description - - - - - - - - - -
%%begintext align
%% First 4 right and left,
%% balance and turn partners,
%% ladies chain,
%% promenade 4.
%% Side couples the same.
%%endtext
% - - - - - - - - - - - - - - - - - - - - - - - - - - - - -
%%sep 1 1 300
